!!!COM:	Bach, Johann Sebastian
!!!OMV:	Nun komm, der Heiden Heiland
!!!OTL:	Nun komm, der Heiden Heiland
**kern	**fb	**kern	**kern	**kern	**kern
*part5	*part5	*part4	*part3	*part2	*part1
*staff5	*	*staff4	*staff3	*staff2	*staff1
*I"Continuo	*	*I"Voice	*I"Voice	*I"Voice	*I"Voice
*I'Cont.	*	*I'V	*I'V	*I'V	*I'V
*clefF4	*	*clefF4	*clefGv2	*clefG2	*clefG2
*Trd0c0	*	*	*	*	*
*k[f#c#]	*	*k[f#c#]	*k[f#c#]	*k[f#c#]	*k[f#c#]
*M4/4	*	*M4/4	*M4/4	*M4/4	*M4/4
=	=	=	=	=	=
8BL	.	8BL	4d	4f#	4b
8AJ	.	8AJ	.	.	.
4G	6	4G	8c#L	4e	4b
.	.	.	8BJ	.	.
4.F#	5	4F#	8c#L	4f#	4a
.	.	.	8BJ	.	.
.	6	8F#L	8AL	4f#	4dd
8G#X	.	8G#XJ	8BJ	.	.
=3	=3	=3	=3	=3	=3
8A#XL	6 5	8A#XL	8c#L	8f#L	8cc#L
8B	#6\	8BJ	8dJ	8g#XJ	8bJ
8F#	#	4F#	4e	4a#X	4cc#
8FF#J	.	.	.	.	.
2BB;	.	2BB;	2d;	2f#;	2b;
=4	=4	=4	=4	=4	=4
4BB	5 3	4BB	8dL	8f#L	8bL
.	#7\ 4 2	.	8eJ	8a#XJ	8cc#J
4B	5	4B	8f#L	4b	4dd
.	6	.	8gnJ	.	.
8AL	.	8AnL	8c#L	4e	4ee
8GJ	.	8GnJ	8BJ	.	.
4F#	6	4F#	8AL	4an	4dd
.	.	.	8BJ	.	.
=5	=5	=5	=5	=5	=5
4E	6	4E	4c#	4g	4ee
4D	.	4D	8dL	8f#	4ff#
.	.	.	8AJ	16gLL	.
.	.	.	.	16aJJ	.
2G;	.	2G;	2B;	2g;	2dd;
=6	=6	=6	=6	=6	=6
8GL	.	8GL	4B	4g	4dd
8F#J	.	8F#J	.	.	.
4E	6	4E	8c#L	4g	4ee
.	7	.	8dJ	.	.
4AA#X	6	4A#X	4c#	4f#	8ff#L
.	5	.	.	.	8eeJ
8BBL	.	8BL	4B	4f#	4dd
8AAnJ	.	8AnJ	.	.	.
=7	=7	=7	=7	=7	=7
!!linebreak:original
8GGL	6	8GL	4B	8eL	8eeL
8EEJ	7 5	8EJ	.	8bJ	8ddJ
4FF#	#	4F#	8f#L	4a#X	4cc#
.	.	.	8eJ	.	.
2BB;	.	2BB;	2d;	2f#;	2b;
=8	=8	=8	=8	=8	=8
8C#L	7 #	8C#L	4G#X	8e#XL	4b
8D#XJ	.	8D#XJ	.	8f#J	.
8E#XL	6 5	8E#XL	4c#	4g#X	4b
8C#J	.	8C#J	.	.	.
8F#L	.	8F#L	4c#	4f#	4an
8EnJ	.	8EnJ	.	.	.
8DnL	6	8DnL	4B	4f#	4dd
8BBJ	.	8BBJ	.	.	.
=9	=9	=9	=9	=9	=9
8E	.	8E	4.B	8gnL	8cc#L
16F#LL	.	16F#LL	.	8dJ	8bJ
16GJJ	.	16GnJJ	.	.	.
4F#	7 4	4F#	.	4e	4cc#
.	#	.	8A#X	.	.
2BB;	.	2BB;	2F#;	2d#X;	2b;
=||	=||	=||	=||	=||	=||
*-	*-	*-	*-	*-	*-
!!!system-decoration: s1,s2,s3,s4,s5
